X: 2059
T: Assembly Of Munster Men
R: jig
M: 6/8
K: Gmajor
e2g edB|BAG A2B|~G3 GED|GBd dBd|
e2g edB|BAG A2B|GAB deg|e3 ~e2d|
e2g edB|BAG A2B|~G3 GED|DEG GBd|
e2g edB|BAG A2B|GAB deg|e3 ~e2d||
eaa g2a|bag a3|bag gde|edB AGE|
eaa g2a|bag g2a|gde deg|a3 ~a2g|
eaa g2a|~g2e edB|d2e dBA|GED DEG|
A2D ABA|GAB d2g|~e3 dBG|A6||

